papirus/48x48/apps/baka-mplayer.svg

<?xml version="1.0" encoding="UTF-8" standalone="no"?>
<svg id="svg2" xmlns:rdf="http://www.w3.org/1999/02/22-rdf-syntax-ns#" xmlns="http://www.w3.org/2000/svg" version="1.1" xmlns:cc="http://creativecommons.org/ns#" xmlns:dc="http://purl.org/dc/elements/1.1/" viewBox="0 0 48 48">
 <metadata id="metadata41">
  <rdf:RDF>
   <cc:Work rdf:about="">
    <dc:format>image/svg+xml</dc:format>
    <dc:type rdf:resource="http://purl.org/dc/dcmitype/StillImage"/>
    <dc:title/>
   </cc:Work>
  </rdf:RDF>
 </metadata>
 <path id="path37" d="m5.6 4.3158c-1.6 1.632-1.6 9.4432-1.6 14.388 0 17.952 10.4 25.296 20 25.296s20-7.3441 20-25.296c0-4.8961 0-12.756-1.6-14.388-1.6-1.6323-12.2 3.4331-15.4 6.697h-6c-3.2-3.2639-13.8-8.3293-15.4-6.6972z" fill-rule="evenodd" fill="#4d4d4d"/>
 <g id="g4238" opacity=".2" transform="translate(0,1)">
  <path id="path4240" d="m28 33.758c0 2.343-1.79 4.242-4 4.242s-4-1.899-4-4.242c0-2.3434 8-2.3434 8 0z"/>
  <path id="path4242" d="m16 15a7 8 0 0 0 -7 8 7 8 0 0 0 7 8 7 8 0 0 0 7 -8 7 8 0 0 0 -7 -8zm0 3a4 5 0 0 1 4 5 4 5 0 0 1 -4 5 4 5 0 0 1 -4 -5 4 5 0 0 1 4 -5z" fill-rule="evenodd"/>
  <path id="path4244" d="m32 15a7 8 0 0 0 -7 8 7 8 0 0 0 7 8 7 8 0 0 0 7 -8 7 8 0 0 0 -7 -8zm0 3a4 5 0 0 1 4 5 4 5 0 0 1 -4 5 4 5 0 0 1 -4 -5 4 5 0 0 1 4 -5z" fill-rule="evenodd"/>
 </g>
 <g id="g4233" fill="#fff">
  <path id="path31" d="m28 33.758c0 2.343-1.79 4.242-4 4.242s-4-1.899-4-4.242c0-2.3434 8-2.3434 8 0z"/>
  <path id="path4218" d="m16 15a7 8 0 0 0 -7 8 7 8 0 0 0 7 8 7 8 0 0 0 7 -8 7 8 0 0 0 -7 -8zm0 3a4 5 0 0 1 4 5 4 5 0 0 1 -4 5 4 5 0 0 1 -4 -5 4 5 0 0 1 4 -5z" fill-rule="evenodd"/>
  <path id="path4221" d="m32 15a7 8 0 0 0 -7 8 7 8 0 0 0 7 8 7 8 0 0 0 7 -8 7 8 0 0 0 -7 -8zm0 3a4 5 0 0 1 4 5 4 5 0 0 1 -4 5 4 5 0 0 1 -4 -5 4 5 0 0 1 4 -5z" fill-rule="evenodd"/>
 </g>
 <path id="path4223" opacity=".2" d="m6.5898 4.002c-0.4492 0.0113-0.7902 0.1104-0.9902 0.3144-1.6 1.632-1.5996 9.4416-1.5996 14.387 0 0.088 0.0034 0.171 0.0039 0.258 0.0031-4.951 0.0681-12.086 1.5957-13.645 1.6-1.6316 12.2 3.4336 15.4 6.698h6c3.2-3.2644 13.8-8.3296 15.4-6.6976 1.528 1.5581 1.593 8.7336 1.596 13.647 0.001-0.088 0.004-0.172 0.004-0.26 0-4.896 0-12.755-1.6-14.387-1.6-1.6316-12.2 3.4336-15.4 6.698h-6c-2.8-2.8564-11.266-7.0912-14.41-7.012z" fill-rule="evenodd" fill="#fff"/>
 <path id="path4228" opacity=".3" d="m4.0039 17.961c-0.0001 0.234-0.0039 0.519-0.0039 0.742 0 17.952 10.4 25.297 20 25.297s20-7.345 20-25.297c0-0.222-0.004-0.507-0.004-0.74-0.101 17.76-10.443 25.037-19.996 25.037s-19.895-7.277-19.996-25.039z" fill-rule="evenodd"/>
</svg>

<?xml version="1.0" encoding="UTF-8" standalone="no"?>
<svg
   xmlns:dc="http://purl.org/dc/elements/1.1/"
   xmlns:cc="http://creativecommons.org/ns#"
   xmlns:rdf="http://www.w3.org/1999/02/22-rdf-syntax-ns#"
   xmlns:svg="http://www.w3.org/2000/svg"
   xmlns="http://www.w3.org/2000/svg"
   xmlns:sodipodi="http://sodipodi.sourceforge.net/DTD/sodipodi-0.dtd"
   xmlns:inkscape="http://www.inkscape.org/namespaces/inkscape"
   id="svg2"
   version="1.1"
   viewBox="0 0 48 48"
   inkscape:version="0.91 r13725"
   sodipodi:docname="baka-mplayer.svg">
  <defs
     id="defs17" />
  <sodipodi:namedview
     pagecolor="#ffffff"
     bordercolor="#666666"
     borderopacity="1"
     objecttolerance="10"
     gridtolerance="10"
     guidetolerance="10"
     inkscape:pageopacity="0"
     inkscape:pageshadow="2"
     inkscape:window-width="1600"
     inkscape:window-height="849"
     id="namedview15"
     showgrid="false"
     inkscape:zoom="4.9166667"
     inkscape:cx="24"
     inkscape:cy="24"
     inkscape:window-x="0"
     inkscape:window-y="0"
     inkscape:window-maximized="1"
     inkscape:current-layer="svg2" />
  <metadata
     id="metadata41">
    <rdf:RDF>
      <cc:Work
         rdf:about="">
        <dc:format>image/svg+xml</dc:format>
        <dc:type
           rdf:resource="http://purl.org/dc/dcmitype/StillImage" />
        <dc:title />
      </cc:Work>
    </rdf:RDF>
  </metadata>
  <path
     style="fill:#4d4d4d;fill-rule:evenodd"
     inkscape:connector-curvature="0"
     id="path37"
     d="M 5.6,4.3158 C 4,5.9478 4,13.759 4,18.7038 c 0,17.952 10.4,25.296 20,25.296 9.6,0 20,-7.3441 20,-25.296 C 44,13.8077 44,5.9478 42.4,4.3158 40.8,2.6835 30.2,7.7489 27,11.0128 l -6,0 C 17.8,7.7489 7.2,2.6835 5.6,4.3156 Z" />
  <g
     style="opacity:0.2"
     id="g4238"
     transform="translate(0,1)">
    <path
       inkscape:connector-curvature="0"
       id="path4240"
       d="M 28,33.758 C 28,36.101 26.21,38 24,38 c -2.21,0 -4,-1.899 -4,-4.242 0,-2.3434 8,-2.3434 8,0 z" />
    <path
       style="fill-rule:evenodd"
       inkscape:connector-curvature="0"
       id="path4242"
       d="m 16,15 a 7,8 0 0 0 -7,8 7,8 0 0 0 7,8 7,8 0 0 0 7,-8 7,8 0 0 0 -7,-8 z m 0,3 a 4,5 0 0 1 4,5 4,5 0 0 1 -4,5 4,5 0 0 1 -4,-5 4,5 0 0 1 4,-5 z" />
    <path
       style="fill-rule:evenodd"
       inkscape:connector-curvature="0"
       id="path4244"
       d="m 32,15 a 7,8 0 0 0 -7,8 7,8 0 0 0 7,8 7,8 0 0 0 7,-8 7,8 0 0 0 -7,-8 z m 0,3 a 4,5 0 0 1 4,5 4,5 0 0 1 -4,5 4,5 0 0 1 -4,-5 4,5 0 0 1 4,-5 z" />
  </g>
  <g
     style="fill:#ffffff"
     id="g4233">
    <path
       inkscape:connector-curvature="0"
       id="path31"
       d="M 28,33.758 C 28,36.101 26.21,38 24,38 c -2.21,0 -4,-1.899 -4,-4.242 0,-2.3434 8,-2.3434 8,0 z" />
    <path
       style="fill-rule:evenodd"
       inkscape:connector-curvature="0"
       id="path4218"
       d="m 16,15 a 7,8 0 0 0 -7,8 7,8 0 0 0 7,8 7,8 0 0 0 7,-8 7,8 0 0 0 -7,-8 z m 0,3 a 4,5 0 0 1 4,5 4,5 0 0 1 -4,5 4,5 0 0 1 -4,-5 4,5 0 0 1 4,-5 z" />
    <path
       style="fill-rule:evenodd"
       inkscape:connector-curvature="0"
       id="path4221"
       d="m 32,15 a 7,8 0 0 0 -7,8 7,8 0 0 0 7,8 7,8 0 0 0 7,-8 7,8 0 0 0 -7,-8 z m 0,3 a 4,5 0 0 1 4,5 4,5 0 0 1 -4,5 4,5 0 0 1 -4,-5 4,5 0 0 1 4,-5 z" />
  </g>
  <path
     inkscape:connector-curvature="0"
     id="path4223"
     d="M 6.5898,4.002 C 6.1406,4.0133 5.7996,4.1124 5.5996,4.3164 3.9996,5.9484 4,13.758 4,18.7034 c 0,0.088 0.0034,0.171 0.0039,0.258 0.0031,-4.951 0.0681,-12.086 1.5957,-13.645 1.6,-1.6316 12.2,3.4336 15.4,6.698 l 6,0 c 3.2,-3.2644 13.8,-8.3296 15.4,-6.6976 1.528,1.5581 1.593,8.7336 1.596,13.647 10e-4,-0.088 0.004,-0.172 0.004,-0.26 0,-4.896 0,-12.755 -1.6,-14.387 -1.6,-1.6316 -12.2,3.4336 -15.4,6.698 l -6,0 c -2.8,-2.8564 -11.266,-7.0912 -14.41,-7.012 z"
     style="opacity:0.1;fill:#ffffff;fill-rule:evenodd" />
  <path
     style="opacity:0.3;fill-rule:evenodd"
     inkscape:connector-curvature="0"
     id="path4228"
     d="M 4.0039,17.961 C 4.0038,18.195 4,18.48 4,18.703 4,36.655 14.4,44 24,44 33.6,44 44,36.655 44,18.703 44,18.481 43.996,18.196 43.996,17.963 43.895,35.723 33.553,43 24,43 14.447,43 4.105,35.723 4.004,17.961 Z" />
</svg>
